X:1
T:061 - Glória a Jesus
T:Letra: Henry Maxwell Wright (1849-1931)
T:Música: Anônimo (CHANTS DE DELIVERANCE ET DE COMBAT)
M:4/4
L:1/8
K:Ab
V:1
"Ab"A3A Ac BA | "Eb"(E2G2)B4 | "Eb7"B3B Bd cB | "Ab"A2c2e4 | e2 e>e e4 | "Db"d2 d>d f4 | "Ab/Eb"e3e ec "Eb7"dB | "Ab"A6z2 |]
w: 1.~Gló-ria, gló-ria, a-le-lui_a! Gló-ria, gló-riaao nos-so Sal-va-dor! Gló-riaa Je-sus, gló-riaa Je-sus, Nos-so gran-de Re-den-tor!           
W: 				                    
W: 
W: Glória, glória, aleluia!
W: Glória, glória ao nosso Salvador!
W: Glória a Jesus, glória a Jesus,
W: Nosso grande Redentor!
W: 
W:         
W: 				         
W:           





%wordsfont Times-Roman 13.0
%vocalfont Times-Roman 13.0
